www/assets/icons/star_border_purple500.svg

<svg xmlns="http://www.w3.org/2000/svg" width="24" height="24" viewBox="0 0 24 24" fill='currentColor'><path d="m12 8.89.94 3.11h2.82l-2.27 1.62.93 3.01L12 14.79l-2.42 1.84.93-3.01L8.24 12h2.82zM12 2l-2.42 8H2l6.17 4.41L5.83 22 12 17.31 18.18 22l-2.35-7.59L22 10h-7.58z"/></svg>

<svg width="24" height="24" viewBox="0 0 24 24" xmlns="http://www.w3.org/2000/svg" fill='currentColor'><path d="M12 8.89L12.94 12H15.76L13.49 13.62L14.42 16.63L12 14.79L9.58 16.63L10.51 13.62L8.24 12H11.06L12 8.89ZM12 2L9.58 10H2L8.17 14.41L5.83 22L12 17.31L18.18 22L15.83 14.41L22 10H14.42L12 2Z"/></svg>
